X:1
T:Zwölf Lieder
T:Entsagung
T:Felix Mendelssohn Bartholdy
T:Johann Gustav Bernhard Droysen
T:Entsagung
T:Op. 9, Nr. 11, bearbeitet für gem. Chor
T:CPDL - Creative Commons Attribution Non Commercial 3.0
C:Felix Mendelssohn Bartholdy
Z:Johann Gustav Bernhard Droysen
Z:CPDL - Creative Commons Attribution Non Commercial 3.0
%%score [ ( 1 2 3 4 ) ( 5 6 ) ]
L:1/8
Q:1/4=90
M:4/4
K:E
V:1 treble nm="Sopran\nAlt"
V:2 treble 
V:3 treble 
V:4 treble 
V:5 bass nm="Tenor\nBass"
V:6 bass 
V:1
"^Andante con moto" E3 E | A2 G2 F2 FB | AGG z G2 B2 | e3 d c2 A2 | F2 z2 F2 G2 | A2 G2 F2 G2 | %6
w: 1.~Herr, zu|dir will ich mich _|ret- * ten, wenn die|Welt mich kränkt und|schlägt; will in|dei- nen Schoß mich|
w: 2.~Herr, nach|dei- ner Gnad' und _|Treu- * e sehnt sich|mein ge- ängs- tigt|Herz, dass ich|mei- ne Schuld be-|
w: 3.~Gott, zu|dei- nem sel'- gen _|Frie- * den keh- ret|heim dein treu- es|Kind, dir zu|die- nen ohn' Er-|
 A2 G z | G3 c | c2 ^B2 e3 d | d2 c2 z2 c2 | B2 F2 G2 A2 | G4 F4 | E4 z2 E2 | =d8- | d2 c2 BA GF | %15
w: bet- ten,|wund und|müd' von ar- gen|Ket- ten, die|mei- ne schwa- che|See- le|trägt, die|mei|_ ne schwa- * che _|
w: reu- e,|dass ich|mei- nen Bund er-|neu- e, von|Jam- mer frei und|frei von|Schmerz, von|Jam-|* mer frei _ und _|
w: mü- den,|dich zu|schau- en froh be-|schie- den. wo|mit dir dei- ne|En- gel|sind, ne|En-|* gel, dei- * ne _|
 (E2 G4) F2 | E4 |] %17
w: See- * le|trägt.|
w: frei _ von|Schmerz.|
w: En- * gel|sind.|
V:2
 B,3 B, | E2 E2 E2 D2 | E2 E x E2 F2 | E3 G E2 C2 | D2 x2 D2 E2 | F2 E2 D2 E2 | CDE x | E2 E2 | %8
 E2 D2 G2 F2 | E2 E2 x2 c2 | B2 F2 G2 F2 | E4 D4 | C4 x2 C2 | E8- | E2 E2 F2 C2 | (B,2 E4) D2 | %16
 B,4 |] %17
V:3
 x4 | x8 | x8 | x8 | x8 | x8 | x4 | x4 | x8 | x8 | x8 | x8 | x4 G2 x2 | x8 | x8 | x8 | x4 |] %17
w: |||||||||||||||||
w: |||||||||||||||||
w: ||||||||||||dei~\-|||||
V:4
 x4 | x8 | x8 | x8 | x8 | x8 | x4 | x4 | x8 | x8 | x8 | x8 | x4 E2 x2 | x8 | x8 | x8 | x4 |] %17
V:5
 G,3 G, | A,2 B,2 C2 B,2 | B,2 B, z B,2 D2 | C3 B, A,2 E,2 | B,2 z2 B,2 B,2 | B,2 B,2 B,2 B,2 | %6
 B,2 B, z | C2 G,2 | G,2 G,2 (G,2 C)^B, | C2 C2 z2 C2 | B,2 F,2 G,2 A,2 | B,6 A,2 | %12
 (G,2 E,2 G,2) A,2 | (B,2 A,4 G,2 | A,2) A,2 A,2 A,2 | (G,2 B,4) A,2 | G,4 |] %17
V:6
 E,2 D,2 | C,2 B,,2 A,,2 B,,2 | E,2 E, x E,2 B,,2 | C,3 G,, A,,2 A,,2 | B,,2 x2 A,2 G,2 | %5
 D,2 E,2 A,2 G,2 | F,2 E, x | C,2 E,2 | G,2 G,,2 C,3 G, | A,2 A,2 x2 C2 | B,2 F,2 G,2 F,2 | %11
 B,4 B,,4 | (C,4 B,,2) A,,A, | (G,2 F,2 E,4 | A,,2) C,2 =D,2 A,,2 | B,,4 B,,4 | E,4 |] %17

